X:1
T:Salve Regina - Webbe
T:#
%%score 1 { ( 2 3 ) | ( 4 5 ) }
L:1/8
Q:1/4=80
M:4/4
K:Eb
V:1 treble nm="Soprano" snm="S"
V:2 treble nm="Organ"
V:3 treble 
V:4 bass 
V:5 bass 
V:1
"^Salve Regina""^Samuel Webbe\n(1740-1816)""^andante" (EG B4) DD | (EG B4) D2 | %2
w: Sal\- * * ve Re-|gi\- * * na,|
 (EG) (GB) (Be) (e/d/) (e/c/) | B3 A G2 z2 |[M:4/4] (c3 A) F2 z F | (B3 G) E2 z2 | %6
w: Ma\- * ter * mi\- * se\- * ri\- *|cor- di- ae,|Vi\- * ta, dul-|ce\- * do,|
 (C=E) (FG) (AB) c2 | (B4- BG)[Q:1/4=40] !fermata!E2 || %8
w: et * spes * no\- * stra,|sal\- * * ve.|
[Q:1/4=40][Q:1/4=80][Q:1/4=40] z F B (c/d/) (e>c) =A2 | FF/F/ Bc/d/ (e>c) =A z/ F/ | %10
w: Ad te cla\- * ma\- * mus,|e- xu- les fi- li- i E\- * vae, Ad|
 B2 fd{d} c2 c z/ c/ | %11
w: te su- spi- * mus, ge-|
[Q:1/4=80][Q:1/4=80] (c_d)c"^lentando"[Q:1/4=75]B[Q:1/4=75] (B[Q:1/4=74]=A)[Q:1/4=73] A[Q:1/4=73] z/[Q:1/4=72] F/ | %12
w: men\- * tes et flen\- * tes, In|
[Q:1/4=72] F2[Q:1/4=71] F[Q:1/4=70]F[Q:1/4=69] F2[Q:1/4=68] F2 | %13
w: hac la- chry- ma- rum|
[Q:1/4=68] F4[Q:1/4=45] !fermata!F4 ||"^a tempo"[Q:1/4=80] DF B4 =A2 | cFfe d2 B2 | eEFG (AD)EF | %17
w: val- le.|E- ia er- go,|Ad- vo- ca- ta no- stra,|Il- los tu- os mi\- * se- ri-|
 G2 c2 c>=B B2 | z G c2 z A F (G/A/) | (E2 D2)[Q:1/4=40] !fermata!C2[Q:1/4=80] z D | (EG) B4 DD | %21
w: cor- des o- cu- los|ad nos, ad nos con\- *|ver\- * te Et|Je\- * sum, be- ne-|
 (EG) B4 DD | (EGGB Be) (e/d/e/c/) | (B3 A) G2 z2 | (c3 A) F2 z2 | (B3 G) E2 z G | %26
w: di\- * ctum fru- ctum|ven\- * * * * * tris * * *|tu\- * i,|No\- * bis,|no\- * bis, post|
 F2 A2 A/G/ e2 G |[Q:1/4=60] !fermata!G4[Q:1/4=80] F2 z B | %28
w: hoc ex- i- li- um, o-|sten- de, O|
 (B>e)[Q:1/4=30] !fermata!e[Q:1/4=80]B (B>f)[Q:1/4=30] !fermata!f[Q:1/4=80]B | %29
w: cle\- * mens, O pi\- * a, O|
 (B>g)[Q:1/4=40] !fermata!g2"^ad lib."[Q:1/4=60] c2 AF | (G2 TF2) !fermata!E4 |] %31
w: dul\- * cis Vir- go Ma-|ri\- * a.|
V:2
"^andante"!p! (EG) B4 D2 | (EG) B4 D2 | (EG)([EG][GB]) (Be) (e/d/)(e/c/) | %3
 B3 A [EG]/ (G/B/G/ e/B/g/e/) |[M:4/4] (c3 A F2) z F | (B3 G) E2 z2 | (C=EFG) ([FA][GB] [Ac]2) | %7
 B4- BG !fermata!E2 || FF [DB][Ec]/[Fd]/ (e>c [C=A]2) | FF [DB][Ec]/[Fd]/ e>c [C=A][=A,F] | %10
 [B,FB]2 fd (dc) cc | c_dcB (B=A) A[=A,CF] | F2 FF F2 F2 | [B,_DF]4 !fermata![CF]4 || %14
 =DF [DB]2- [CFB]2 [CE=A]2 | (c2 fe) ([Fd]2 [DB]2) | [EBe]EFG [DA]DEF | %17
 ([B,G]2 [Ec]2) ([Ec]>[D=B]) [DB]2 | [CGc]2 z [CEG] [CFA]2 (FG/A/) | %19
 ([CE]2 [=B,D]2) !fermata!C2 DD | (EG) B4 DD | (EG) B4 DD | (EG)([EG][GB]) (Be) (e/d/e/c/) | %23
 (B3 A [EG]/) (G/B/G/ e/B/g/e/) | (c3 A F2) z2 | (B3 G) E2 z [EG] | (F2 A2) A/G/ [Ge]2 [EG] | %27
 (!fermata![EG]4 [DF]2) z B | (B>e) !fermata!eB (B>f) !fermata!fB | %29
 ([GB]>[Bg]) !fermata![Bg]2 ([Ec]2 AF) | ([EG]2 [DF]2) !fermata![G,E]4 |] %31
V:3
 x8 | x8 | x4 G2 G>E- | [CE]2 D2 x4 |[M:4/4] E4 x4 | E4 x4 | x8 | _E2 D2 E2 x2 || x4 E2 x2 | %9
 B,2 x2 E2 x2 | x2 [FB]2 G4 | G4 [CF]3 x | [=A,C]3 [A,C] _B,3 [_A,C] | x8 || D2 x2 x4 | F4 x4 | %16
 x8 | x8 | x8 | x8 | E2 x4 x x | x8 | x4 G2 G>E- | [CE]2 D2 x4 | E4 x4 | E4 x4 | B,3 D E x3 | x8 | %28
 E3 z F3 z | x4 x2 C2 | x8 |] %31
V:4
 E,,2 z2 (E,G, B,2) | G,4 (E,G, B,2) | G,2 E,4 C,2 | (F,2 B,,2 E,) z z2 |[M:4/4] x8 | x8 | x8 | %7
 G,2 [F,A,]2 x4 || x4 G,C x2 | x4 G,C x2 | x8 | =E,4 F,4 | F,3 _E, _D,3 C, | B,,4 [=A,,F,]4 || %14
 [B,,F,]4 [F,,F,]4 | [=A,,=A,]4 [B,,B,]3 [_A,,_A,] | [G,,G,]2 z2 [F,,F,]2 z2 | %17
 [E,,E,]3 [C,,C,] [G,,G,]3 [F,,F,] | [E,,E,]2 z [C,,C,] [F,,F,]2 z [D,,D,] | %19
 [G,,G,]4 !fermata![C,,C,]2 [_B,,F,_A,]2 | [E,G,]2 z2 (E,G, B,2) | G,4 (E,G, B,2) | G,2 E,4 C,2 | %23
 (F,2 B,,2 E,) z z2 | A,2 A,,2 z (D,F,A,) | G,2 G,,2 z (G,,B,,E,) | D,3 [B,,B,] [E,B,]4 | %27
 !fermata!B,4- [B,,B,]2 z2 | !fermata![G,B,]3 z !fermata![D,B,]3 z | !fermata![E,B,]4 [A,,A,]4 | %30
 B,2 [B,,-A,]2 !fermata![E,,B,,E,]4 |] %31
V:5
 x8 | x8 | x8 | x8 |[M:4/4] A,2 A,,2 z (D,F,A,) | G,2 G,,2 z G,,B,,E, | A,4 A,,4 | %7
 B,,4 !fermata![E,G,]4 || [D,B,]2 [B,,B,]2 C,2 TF,>E, | D,2 [B,,B,]2 C,2 TF,>E, | D,4 E,4 | x8 | %12
 x8 | x8 || x8 | x8 | x8 | x8 | x8 | x8 | x8 | x8 | x8 | x8 | x8 | x8 | x8 | x8 | x8 | x8 | x8 |] %31

